X: 15023
T: George Peoples'
R: reel
M: 4/4
K: Ddorian
|:A,DDE FEDE|CDEG cedB|cAGE CDEG|AcGE EDDC|
A,DDE FEDE|B,CEC A,CCA,|_B,FDB, CDEG|1 AcGE EDDC:|2 AcGE EDDc||
|:Add^c dfe=c|dcAB cAGE|~F3 G EGcd|efed cAGc|
Add^c dfe=c|dcAB cAGc|~f3 e dcAB|cAGE D3 c:|
|:Add^c defg|ad (3ddd c'dbd|ad (3ddd cdef|g~c3 GcEc|
Add^c dfe=c|dcAB cAGc|Afec dcAB|cAGE D3 c:|

